src/components/00-materials/images-raw/Plug Adaptor.svg

<svg width="96" height="96" viewBox="0 0 96 96" fill="none" xmlns="http://www.w3.org/2000/svg">
<path d="M80.02 29.3999H15.98C9.91591 29.3999 5 34.3158 5 40.3799V55.6299C5 61.694 9.91591 66.6099 15.98 66.6099H80.02C86.0841 66.6099 91 61.694 91 55.6299V40.3799C91 34.3158 86.0841 29.3999 80.02 29.3999Z" stroke="#00008F" stroke-width="2" stroke-linecap="round" stroke-linejoin="round"/>
<path d="M48 59.2797C54.2298 59.2797 59.28 54.2295 59.28 47.9997C59.28 41.77 54.2298 36.7197 48 36.7197C41.7702 36.7197 36.72 41.77 36.72 47.9997C36.72 54.2295 41.7702 59.2797 48 59.2797Z" stroke="#00008F" stroke-width="2" stroke-linecap="round" stroke-linejoin="round"/>
<path d="M43.76 45.6099H43.01C41.8999 45.6099 41 46.5098 41 47.6199V48.3699C41 49.48 41.8999 50.3799 43.01 50.3799H43.76C44.8701 50.3799 45.77 49.48 45.77 48.3699V47.6199C45.77 46.5098 44.8701 45.6099 43.76 45.6099Z" stroke="#00008F" stroke-width="2" stroke-linecap="round" stroke-linejoin="round"/>
<path d="M52.99 45.6099H52.24C51.1299 45.6099 50.23 46.5098 50.23 47.6199V48.3699C50.23 49.48 51.1299 50.3799 52.24 50.3799H52.99C54.1001 50.3799 55 49.48 55 48.3699V47.6199C55 46.5098 54.1001 45.6099 52.99 45.6099Z" stroke="#00008F" stroke-width="2" stroke-linecap="round" stroke-linejoin="round"/>
<path d="M75.35 59.2797C81.5798 59.2797 86.63 54.2295 86.63 47.9997C86.63 41.77 81.5798 36.7197 75.35 36.7197C69.1202 36.7197 64.07 41.77 64.07 47.9997C64.07 54.2295 69.1202 59.2797 75.35 59.2797Z" stroke="#00008F" stroke-width="2" stroke-linecap="round" stroke-linejoin="round"/>
<path d="M71.11 45.6099H70.36C69.2499 45.6099 68.35 46.5098 68.35 47.6199V48.3699C68.35 49.48 69.2499 50.3799 70.36 50.3799H71.11C72.2201 50.3799 73.12 49.48 73.12 48.3699V47.6199C73.12 46.5098 72.2201 45.6099 71.11 45.6099Z" stroke="#00008F" stroke-width="2" stroke-linecap="round" stroke-linejoin="round"/>
<path d="M80.34 45.6099H79.59C78.4799 45.6099 77.58 46.5098 77.58 47.6199V48.3699C77.58 49.48 78.4799 50.3799 79.59 50.3799H80.34C81.4501 50.3799 82.35 49.48 82.35 48.3699V47.6199C82.35 46.5098 81.4501 45.6099 80.34 45.6099Z" stroke="#00008F" stroke-width="2" stroke-linecap="round" stroke-linejoin="round"/>
<path d="M20.65 59.2797C26.8798 59.2797 31.93 54.2295 31.93 47.9997C31.93 41.77 26.8798 36.7197 20.65 36.7197C14.4202 36.7197 9.37 41.77 9.37 47.9997C9.37 54.2295 14.4202 59.2797 20.65 59.2797Z" stroke="#00008F" stroke-width="2" stroke-linecap="round" stroke-linejoin="round"/>
<path d="M16.41 45.6099H15.66C14.5499 45.6099 13.65 46.5098 13.65 47.6199V48.3699C13.65 49.48 14.5499 50.3799 15.66 50.3799H16.41C17.5201 50.3799 18.42 49.48 18.42 48.3699V47.6199C18.42 46.5098 17.5201 45.6099 16.41 45.6099Z" stroke="#00008F" stroke-width="2" stroke-linecap="round" stroke-linejoin="round"/>
<path d="M25.63 45.6099H24.88C23.7699 45.6099 22.87 46.5098 22.87 47.6199V48.3699C22.87 49.48 23.7699 50.3799 24.88 50.3799H25.63C26.7401 50.3799 27.64 49.48 27.64 48.3699V47.6199C27.64 46.5098 26.7401 45.6099 25.63 45.6099Z" stroke="#00008F" stroke-width="2" stroke-linecap="round" stroke-linejoin="round"/>
</svg>

<svg width="96" height="96" viewBox="0 0 96 96" fill="none" xmlns="http://www.w3.org/2000/svg"><path d="M80.02 29.4H15.98C9.916 29.4 5 34.316 5 40.38v15.25c0 6.064 4.916 10.98 10.98 10.98h64.04c6.064 0 10.98-4.916 10.98-10.98V40.38c0-6.064-4.916-10.98-10.98-10.98z" stroke="#00008F" stroke-width="2" stroke-linecap="round" stroke-linejoin="round"/><path d="M48 59.28c6.23 0 11.28-5.05 11.28-11.28 0-6.23-5.05-11.28-11.28-11.28-6.23 0-11.28 5.05-11.28 11.28 0 6.23 5.05 11.28 11.28 11.28z" stroke="#00008F" stroke-width="2" stroke-linecap="round" stroke-linejoin="round"/><path d="M43.76 45.61h-.75c-1.11 0-2.01.9-2.01 2.01v.75c0 1.11.9 2.01 2.01 2.01h.75c1.11 0 2.01-.9 2.01-2.01v-.75c0-1.11-.9-2.01-2.01-2.01zM52.99 45.61h-.75c-1.11 0-2.01.9-2.01 2.01v.75c0 1.11.9 2.01 2.01 2.01h.75c1.11 0 2.01-.9 2.01-2.01v-.75c0-1.11-.9-2.01-2.01-2.01zM75.35 59.28c6.23 0 11.28-5.05 11.28-11.28 0-6.23-5.05-11.28-11.28-11.28-6.23 0-11.28 5.05-11.28 11.28 0 6.23 5.05 11.28 11.28 11.28z" stroke="#00008F" stroke-width="2" stroke-linecap="round" stroke-linejoin="round"/><path d="M71.11 45.61h-.75c-1.11 0-2.01.9-2.01 2.01v.75c0 1.11.9 2.01 2.01 2.01h.75c1.11 0 2.01-.9 2.01-2.01v-.75c0-1.11-.9-2.01-2.01-2.01zM80.34 45.61h-.75c-1.11 0-2.01.9-2.01 2.01v.75c0 1.11.9 2.01 2.01 2.01h.75c1.11 0 2.01-.9 2.01-2.01v-.75c0-1.11-.9-2.01-2.01-2.01zM20.65 59.28c6.23 0 11.28-5.05 11.28-11.28 0-6.23-5.05-11.28-11.28-11.28-6.23 0-11.28 5.05-11.28 11.28 0 6.23 5.05 11.28 11.28 11.28z" stroke="#00008F" stroke-width="2" stroke-linecap="round" stroke-linejoin="round"/><path d="M16.41 45.61h-.75c-1.11 0-2.01.9-2.01 2.01v.75c0 1.11.9 2.01 2.01 2.01h.75c1.11 0 2.01-.9 2.01-2.01v-.75c0-1.11-.9-2.01-2.01-2.01zM25.63 45.61h-.75c-1.11 0-2.01.9-2.01 2.01v.75c0 1.11.9 2.01 2.01 2.01h.75c1.11 0 2.01-.9 2.01-2.01v-.75c0-1.11-.9-2.01-2.01-2.01z" stroke="#00008F" stroke-width="2" stroke-linecap="round" stroke-linejoin="round"/></svg>
